src/lib/packages/icons/src/assets/filled/phone-incoming.svg

<svg width="24" height="24" viewBox="0 0 24 24" fill="none" xmlns="http://www.w3.org/2000/svg">
<path d="M17.6249 14.174L20.268 15.75C20.814 16.076 21.0959 16.71 20.9709 17.334C20.4599 19.893 17.89 21.533 15.373 20.842C9.43395 19.212 4.79484 14.587 3.15884 8.635C2.46684 6.117 4.10495 3.54498 6.66495 3.03298L6.68179 3.02999C7.30679 2.90499 7.94395 3.18799 8.26895 3.73699L9.83194 6.376C10.3879 7.315 10.1118 8.52398 9.20279 9.12798L7.5419 10.233C8.7139 13.04 10.9538 15.289 13.7528 16.459L14.8678 14.794C15.4768 13.887 16.6869 13.615 17.6249 14.174ZM20.5299 3.46999C20.2369 3.17699 19.7619 3.17699 19.4689 3.46999L15.7489 7.18999V5.66698C15.7489 5.25298 15.4129 4.91698 14.9989 4.91698C14.5849 4.91698 14.2489 5.25298 14.2489 5.66698V8.99999C14.2489 9.09799 14.2688 9.19498 14.3068 9.28698C14.3828 9.46998 14.5288 9.61597 14.7128 9.69197C14.8048 9.72997 14.9019 9.74999 14.9999 9.74999H18.3329C18.7469 9.74999 19.0829 9.41399 19.0829 8.99999C19.0829 8.58599 18.7469 8.24999 18.3329 8.24999H16.8109L20.5309 4.52999C20.8229 4.23799 20.8229 3.76199 20.5299 3.46999Z" fill="currentColor"/>
</svg>

<svg xmlns="http://www.w3.org/2000/svg" width="24" height="24" fill="none"><path fill="currentColor" d="m17.625 14.174 2.643 1.576c.546.326.828.96.703 1.584-.511 2.559-3.081 4.199-5.598 3.508A17.442 17.442 0 0 1 3.159 8.635c-.692-2.518.946-5.09 3.506-5.602l.017-.003a1.502 1.502 0 0 1 1.587.707l1.563 2.639a2.05 2.05 0 0 1-.63 2.752l-1.66 1.105a11.602 11.602 0 0 0 6.21 6.226l1.116-1.665a2.053 2.053 0 0 1 2.757-.62ZM20.53 3.47a.75.75 0 0 0-1.061 0l-3.72 3.72V5.667a.75.75 0 0 0-1.5 0V9a.75.75 0 0 0 .75.75h3.334a.75.75 0 0 0 0-1.5H16.81l3.72-3.72a.75.75 0 0 0-.001-1.06Z"/></svg>
